X:1
T:Bourr?e d'Aragon
R:Bourree
B:Les Panards Dansants tune book
M:3/8
L:1/8
K:Gdor
GBc|dfe|cBG|d>ef|gfe|d>ef|gfe|c3:|
gfd|fdc|dcB|cBG|GBd|c>Bc|1def|ecd:|2dcB|G3|]
<end>
<start>
